Origami/64x64/apps/gnome-tetravex.svg

<svg width="64" height="64" version="1" xmlns="http://www.w3.org/2000/svg">
 <path d="m4.00042 56.000075v1.99997c0 1.661975 1.3379799 2.999955 2.999955 2.999955h49.99925c1.661975 0 2.999955-1.33798 2.999955-2.999955v-1.99997c0 1.661975-1.33798 2.999955-2.999955 2.999955h-49.99925c-1.6619751 0-2.999955-1.33798-2.999955-2.999955z" style="opacity:.2"/>
 <path d="m6.800378 4.00087c-0.7755884 0-1.4763779 0.3113953-1.9823703 0.8175877l27.181592 27.181592 27.181592-27.181592c-0.505992-0.5065924-1.205982-0.8179877-1.98197-0.8179877h-50.399244z" style="fill:#4987d7"/>
 <path d="m6.800378 60.00003c-0.7755884 0-1.4763779-0.311995-1.9823703-0.817988l27.181592-27.181592 27.181592 27.181592c-0.505992 0.505993-1.205982 0.817988-1.98197 0.817988h-50.399244z" style="fill:#a45390"/>
 <path d="m59.99958 6.800828c0-0.7755884-0.311475-1.4762979-0.817568-1.9823903l-27.181592 27.181592 27.181592 27.181592c0.505993-0.505992 0.817988-1.205982 0.817988-1.98197v-50.399244z" style="fill:#6db832"/>
 <path d="m 4.00042,6.800828 c 0,-0.7755884 0.3114753,-1.4762979 0.8175677,-1.9823903 L 31.99958,32.00003 4.8179877,59.181622 C 4.3113953,58.67563 4,57.97564 4,57.199652 L 4,6.800408 Z" style="fill:#c2352a"/>
 <path d="m34.544922 9.0019531c-1.180009 0-2.212582 0.1429119-3.09961 0.4277344-0.878947 0.2766891-1.63672 0.6637505-2.271484 1.1601565-0.626617 0.488272-1.147467 1.065112-1.5625 1.732422-0.406887 0.66727-0.732419 1.091806-0.976562 1.873046-0.235996 0.77311-0.40235 1.583354-0.5 2.429688-0.089518 0.846294-0.134766 1.696301-0.134766 2.550781h2e-3c0 1.34318 0.159234 2.506249 0.476563 3.490235 0.325329 0.977318 0.7668 1.787029 1.328125 2.429687 0.570658 0.642656 1.237964 1.122124 2.001953 1.439453 0.765275 0.309328 1.588097 0.464844 2.46675 0.464844 0.895987 0 1.701359-0.138067 2.416015-0.414062 0.716136-0.284822 1.32748-0.691739 1.832032-1.220704 0.504539-0.537099 0.889647-1.188163 1.158203-1.953125 0.276689-0.764896 0.416015-1.631197 0.416015-2.599609 0-0.90332-0.113934-1.704441-0.341797-2.404297-0.22785-0.699856-0.556967-1.390954-0.988281-1.871094-0.423167-0.48014-0.944016-0.845381-1.5625-1.097656-0.618484-0.252277-1.314796-0.378906-2.08789-0.378906-0.48014 0-0.91602 0.05241-1.306641 0.158203-0.382488 0.105798-0.727874 0.252283-1.037109 0.439453-0.30925 0.179037-0.582364 0.499356-0.81836 0.759766-0.227863 0.252276-0.423179 0.52539-0.585937 0.818359h-0.146485c0.04069-0.830121 0.147469-1.587895 0.31836-2.271484 0.179037-0.68359 0.475591-0.968759 0.890625-1.457032 0.415033-0.488273 0.97559-0.868162 1.683593-1.136718 0.708016-0.27669 1.612314-0.414063 2.710938-0.414063 0.349928 0 0.695314 0.02344 1.037109 0.07227 0.349928 0.04069 0.679046 0.09863 0.988281 0.171875v-3.0156251c-0.154623-0.032547-0.328133-0.061525-0.523437-0.085937-0.195317-0.024413-0.399745-0.040698-0.611328-0.048828-0.20345-0.016279-0.405924-0.027026-0.609375-0.035156-0.20345-0.00813-0.391609-0.013672-0.5625-0.013672zm-2.294922 9.0507809c0.740549 0 1.290377 0.25326 1.648438 0.757813 0.366207 0.496419 0.548828 1.180021 0.548828 2.050781 0 0.537099-0.05794 1.000004-0.171875 1.390625-0.105785 0.390621-0.259441 0.716153-0.462891 0.976563-0.195304 0.252263-0.430342 0.444007-0.707031 0.574218-0.268556 0.122067-0.570649 0.183594-0.904297 0.183594-0.406901 0-0.764984-0.10319-1.074219-0.30664-0.301102-0.203452-0.557948-0.467454-0.769531-0.792969-0.203437-0.333649-0.357093-0.704427-0.462891-1.111328-0.09765-0.415033-0.146484-0.829107-0.146484-1.244141 0-0.301102 0.05599-0.597656 0.169922-0.890625 0.122065-0.292969 0.293941-0.558925 0.513672-0.794922 0.21973-0.236009 0.483733-0.425788 0.792968-0.572265 0.309249-0.146478 0.65105-0.220704 1.025391-0.220704zm12.75 6.947266v9.003906l0.855469 0.806641c0.154625-0.04883 0.339198-0.09408 0.550781-0.134766 0.211583-0.04883 0.43034-0.09408 0.658203-0.134765 0.235997-0.04069 0.471035-0.07325 0.707031-0.09766 0.244143-0.02441 0.472011-0.03516 0.683594-0.03516 1.163663 0 2.022793 0.231454 2.576172 0.695313 0.561511 0.455753 0.841797 1.12306 0.841797 2.001953 0 0.984652-0.283858 1.704429-0.853516 2.160156-0.569631 0.44758-1.399757 0.671875-2.490234 0.671875-0.366195 0-0.753255-0.02897-1.160156-0.08594-0.406887-0.0651-0.813803-0.14649-1.220703-0.24414-0.398754-0.105776-0.785816-0.22688-1.160157-0.365225-0.374341-0.146477-0.703458-0.302086-0.988281-0.464844v3.259765c0.293329 0.162665 0.619234 0.304451 0.976562 0.425782 0.366661 0.122665 0.749777 0.219638 1.148438 0.292968 0.406661 0.08133 0.829538 0.143594 1.269531 0.183594 0.43866 0.04133 0.882085 0.06055 1.330078 0.06055 1.12265 0 2.115863-0.142405 2.978516-0.427734 0.870721-0.284822 1.597669-0.691739 2.183594-1.220704 0.585925-0.537098 1.030929-1.188163 1.332031-1.953124 0.301102-0.773163 0.451172-1.642917 0.451172-2.611329 0-0.878933-0.139327-1.656588-0.416016-2.332031-0.276689-0.683576-0.658211-1.253257-1.146484-1.708984-0.488286-0.455727-1.06154-0.801113-1.720703-1.03711-0.65915-0.235999-1.371757-0.355471-2.136719-0.355471v2e-3c-0.545245 0-0.991868 0.02898-1.341797 0.08594-0.341795 0.05696-0.643888 0.112952-0.904297 0.169922l0.292969-3.611378h5.703125v-3h-9zm-31.005859 0.09375c-0.716136 0-1.363616 0.07422-1.941407 0.220703-0.577791 0.138344-1.105798 0.324551-1.585937 0.560547-0.4801396 0.236011-0.9196055 0.509123-1.3183595 0.818359-0.398754 0.301102-0.7822296 0.418305-1.1484375 0.751953l2.050781 2.431641c0.651031-0.585925 1.273117-1.036134 1.867188-1.353515 0.594058-0.317382 1.212572-0.476563 1.855469-0.476563 0.610351 0 1.095064 0.166351 1.453124 0.5 0.366207 0.333648 0.548829 0.802092 0.548829 1.404297 0 0.545245-0.08497 1.053397-0.25586 1.52539-0.170904 0.471994-0.411468 0.936852-0.720703 1.392579-0.309235 0.455713-0.678062 0.922204-1.109375 1.402343-0.431301 0.480126-0.912441 1.006514-1.441406 1.576172l-4.1992189 4.728516v2.423828h11.97461v-2e-3 -2.974609h-7.273438v-0.169922l2.146484-2.361328c0.63475-0.626617 1.229825-1.241546 1.783204-1.84375 0.561525-0.610351 1.053395-1.219742 1.476562-1.830079 0.423167-0.618484 0.75781-1.246108 1.001953-1.880859 0.244129-0.642924 0.365235-1.313816 0.365235-2.013672 0-0.773095-0.130217-1.469406-0.390626-2.08789-0.252276-0.618471-0.617516-0.943688-1.097656-1.375-0.480126-0.439401-1.062504-0.775676-1.746094-1.011672-0.675496-0.235996-1.44044-0.355469-2.294921-0.355469zm12.005859 16.083984v2.822266h8.203125l-6.347656 15h2e-3 3.941406l6.201125-15.453125v-2.369141h-12z" style="opacity:.2"/>
 <path d="m34.544922 8.0019531c-1.180009 0-2.212582 0.1429119-3.09961 0.4277344-0.878947 0.2766891-1.63672 0.6637502-2.271484 1.1601563-0.626617 0.4882722-1.147467 1.0651122-1.5625 1.7324222-0.406887 0.66727-0.732419 1.091806-0.976562 1.873046-0.235996 0.77311-0.40235 1.583354-0.5 2.429688-0.089518 0.846294-0.134766 1.696301-0.134766 2.550781h0.001953c0 1.34318 0.159234 2.506249 0.476563 3.490235 0.325329 0.977318 0.7668 1.787029 1.328125 2.429687 0.570658 0.642656 1.237964 1.122124 2.001953 1.439453 0.765322 0.309328 1.588144 0.464844 2.466797 0.464844 0.895987 0 1.701359-0.138067 2.416015-0.414062 0.716136-0.284822 1.32748-0.691739 1.832032-1.220704 0.504539-0.537099 0.889647-1.188163 1.158203-1.953125 0.276689-0.764896 0.416015-1.631197 0.416015-2.599609 0-0.90332-0.113934-1.704441-0.341797-2.404297-0.22785-0.699856-0.556967-1.390954-0.988281-1.871094-0.423167-0.48014-0.944016-0.845381-1.5625-1.097656-0.618484-0.252277-1.314796-0.378906-2.08789-0.378906-0.48014 0-0.91602 0.052405-1.306641 0.158203-0.382488 0.105798-0.727874 0.252283-1.037109 0.439453-0.30925 0.179037-0.582364 0.499356-0.81836 0.759766-0.227863 0.252276-0.423179 0.52539-0.585937 0.818359h-0.146485c0.040693-0.830121 0.147469-1.587895 0.31836-2.271484 0.179037-0.68359 0.475591-0.968759 0.890625-1.457032 0.415033-0.488273 0.97559-0.868162 1.683593-1.136718 0.708016-0.27669 1.612314-0.414063 2.710938-0.414063 0.349928 0 0.695314 0.023436 1.037109 0.072266 0.349928 0.040692 0.679046 0.098635 0.988281 0.171875v-3.0156251c-0.154623-0.032547-0.328133-0.0615245-0.523437-0.0859375-0.195317-0.024413-0.399745-0.0406982-0.611328-0.0488282-0.20345-0.0162789-0.405924-0.0270262-0.609375-0.0351562-0.20345-0.00813-0.391609-0.0136719-0.5625-0.0136719zm-2.294922 9.0507809c0.740549 0 1.290377 0.25326 1.648438 0.757813 0.366207 0.496419 0.548828 1.180021 0.548828 2.050781 0 0.537099-0.057944 1.000004-0.171875 1.390625-0.105785 0.390621-0.259441 0.716153-0.462891 0.976563-0.195304 0.252263-0.430342 0.444007-0.707031 0.574218-0.268556 0.122067-0.570649 0.183594-0.904297 0.183594-0.406901 0-0.764984-0.10319-1.074219-0.30664-0.301102-0.203452-0.557948-0.467454-0.769531-0.792969-0.203437-0.333649-0.357093-0.704427-0.462891-1.111328-0.097648-0.415033-0.146484-0.829107-0.146484-1.244141 0-0.301102 0.055991-0.597656 0.169922-0.890625 0.122065-0.292969 0.293941-0.558925 0.513672-0.794922 0.21973-0.236009 0.483733-0.425788 0.792968-0.572265 0.309249-0.146478 0.65105-0.220704 1.025391-0.220704zm12.75 6.947266v9.003906l0.855469 0.806641c0.154625-0.048828 0.339198-0.094076 0.550781-0.134766 0.211583-0.048828 0.43034-0.094075 0.658203-0.134765 0.235997-0.04069 0.471035-0.073247 0.707031-0.097657 0.244143-0.02441 0.472011-0.035156 0.683594-0.035156 1.163663 0 2.022793 0.231454 2.576172 0.695313 0.561511 0.455753 0.841797 1.12306 0.841797 2.001953 0 0.984652-0.283858 1.704429-0.853516 2.160156-0.569631 0.44758-1.399757 0.671875-2.490234 0.671875-0.366195 0-0.753255-0.028968-1.160156-0.085938-0.406887-0.065104-0.813803-0.14649-1.220703-0.24414-0.398754-0.105785-0.785816-0.226889-1.160157-0.365234-0.374341-0.146477-0.703458-0.302086-0.988281-0.464844v3.259765c0.293329 0.162665 0.619234 0.304451 0.976562 0.425782 0.366661 0.122665 0.749777 0.219638 1.148438 0.292968 0.406661 0.081331 0.829538 0.143594 1.269531 0.183594 0.43866 0.04133 0.882085 0.060547 1.330078 0.060547 1.12265 0 2.115863-0.142405 2.978516-0.427734 0.870721-0.284822 1.597669-0.691739 2.183594-1.220704 0.585925-0.537098 1.030929-1.188163 1.332031-1.953124 0.301102-0.773163 0.451172-1.642917 0.451172-2.611329 0-0.878933-0.139327-1.656588-0.416016-2.332031-0.276689-0.683576-0.658211-1.253257-1.146484-1.708984-0.488286-0.455727-1.06154-0.801113-1.720703-1.03711-0.65915-0.235996-1.371757-0.355468-2.136719-0.355468v0.001953c-0.545245 0-0.991868 0.028977-1.341797 0.085937-0.341795 0.056959-0.643888 0.112952-0.904297 0.169922l0.292969-3.611328h5.703125v-3h-9zm-31.005859 0.09375c-0.716136 0-1.363616 0.074225-1.941407 0.220703-0.577791 0.138344-1.105798 0.324551-1.585937 0.560547-0.4801396 0.236011-0.9196055 0.509123-1.3183595 0.818359-0.398754 0.301102-0.7822296 0.418305-1.1484375 0.751953l2.050781 2.431641c0.651031-0.585925 1.273117-1.036134 1.867188-1.353515 0.594058-0.317382 1.212572-0.476563 1.855469-0.476563 0.610351 0 1.095064 0.166351 1.453124 0.5 0.366207 0.333648 0.548829 0.802092 0.548829 1.404297 0 0.545245-0.084969 1.053397-0.25586 1.52539-0.170904 0.471994-0.411468 0.936852-0.720703 1.392579-0.309235 0.455713-0.678062 0.922204-1.109375 1.402343-0.431301 0.480126-0.912441 1.006514-1.441406 1.576172l-4.1992189 4.728516v2.423828h11.97461v-0.001953-2.974609h-7.273438v-0.169922l2.146484-2.361328c0.63475-0.626617 1.229825-1.241546 1.783204-1.84375 0.561525-0.610351 1.053395-1.219742 1.476562-1.830079 0.423167-0.618484 0.75781-1.246108 1.001953-1.880859 0.244129-0.642924 0.365235-1.313816 0.365235-2.013672 0-0.773095-0.130217-1.469406-0.390626-2.08789-0.252276-0.618471-0.617516-0.943688-1.097656-1.375-0.480126-0.439448-1.062504-0.775723-1.746094-1.011719-0.675496-0.235996-1.44044-0.355469-2.294921-0.355469zm12.005859 16.083984v2.822266h8.203125l-6.347656 15h0.001953 3.941406l6.201172-15.453125v-2.369141h-12z" style="fill:#ffffff"/>
 <path d="m7 4c-1.6619751 0-3 1.3380249-3 3v1c0-1.6619751 1.3380249-3 3-3h50c1.661975 0 3 1.3380249 3 3v-1c0-1.6619751-1.338025-3-3-3h-50z" style="fill:#ffffff;opacity:.1"/>
</svg>

<svg xmlns="http://www.w3.org/2000/svg" width="64" height="64" version="1">
 <path style="opacity:0.2" d="m 4.00042,56.000075 0,1.99997 C 4.00042,59.66202 5.3383999,61 7.000375,61 l 49.99925,0 c 1.661975,0 2.999955,-1.33798 2.999955,-2.999955 l 0,-1.99997 c 0,1.661975 -1.33798,2.999955 -2.999955,2.999955 l -49.99925,0 c -1.6619751,0 -2.999955,-1.33798 -2.999955,-2.999955 z"/>
 <path style="fill:#4987d7" d="m 6.800378,4.00087 c -0.7755884,0 -1.4763779,0.3113953 -1.9823703,0.8175877 L 31.9996,32.00005 59.181192,4.8184577 C 58.6752,4.3118653 57.97521,4.00047 57.199222,4.00047 l -50.399244,0 z"/>
 <path style="fill:#a45390" d="m 6.800378,60.00003 c -0.7755884,0 -1.4763779,-0.311995 -1.9823703,-0.817988 L 31.9996,32.00045 59.181192,59.182042 C 58.6752,59.688035 57.97521,60.00003 57.199222,60.00003 l -50.399244,0 z"/>
 <path style="fill:#6db832" d="m 59.99958,6.800828 c 0,-0.7755884 -0.311475,-1.4762979 -0.817568,-1.9823903 L 32.00042,32.00003 59.182012,59.181622 C 59.688005,58.67563 60,57.97564 60,57.199652 L 60,6.800408 Z"/>
 <path style="fill:#c2352a" d="m 4.00042,6.800828 c 0,-0.7755884 0.3114753,-1.4762979 0.8175677,-1.9823903 L 31.99958,32.00003 4.8179877,59.181622 C 4.3113953,58.67563 4,57.97564 4,57.199652 L 4,6.800408 Z"/>
 <path style="opacity:0.2" d="m 34.544922,9.0019531 c -1.180009,0 -2.212582,0.1429119 -3.09961,0.4277344 -0.878947,0.2766891 -1.63672,0.6637505 -2.271484,1.1601565 -0.626617,0.488272 -1.147467,1.065112 -1.5625,1.732422 -0.406887,0.66727 -0.732419,1.091806 -0.976562,1.873046 -0.235996,0.77311 -0.40235,1.583354 -0.5,2.429688 C 26.045248,17.471294 26,18.321301 26,19.175781 l 0.002,0 c 0,1.34318 0.159234,2.506249 0.476563,3.490235 0.325329,0.977318 0.7668,1.787029 1.328125,2.429687 0.570658,0.642656 1.237964,1.122124 2.001953,1.439453 C 30.573916,26.844484 31.396738,27 32.275391,27 c 0.895987,0 1.701359,-0.138067 2.416015,-0.414062 0.716136,-0.284822 1.32748,-0.691739 1.832032,-1.220704 0.504539,-0.537099 0.889647,-1.188163 1.158203,-1.953125 0.276689,-0.764896 0.416015,-1.631197 0.416015,-2.599609 0,-0.90332 -0.113934,-1.704441 -0.341797,-2.404297 -0.22785,-0.699856 -0.556967,-1.390954 -0.988281,-1.871094 -0.423167,-0.48014 -0.944016,-0.845381 -1.5625,-1.097656 -0.618484,-0.252277 -1.314796,-0.378906 -2.08789,-0.378906 -0.48014,0 -0.91602,0.05241 -1.306641,0.158203 -0.382488,0.105798 -0.727874,0.252283 -1.037109,0.439453 -0.30925,0.179037 -0.582364,0.499356 -0.81836,0.759766 -0.227863,0.252276 -0.423179,0.52539 -0.585937,0.818359 l -0.146485,0 c 0.04069,-0.830121 0.147469,-1.587895 0.31836,-2.271484 0.179037,-0.68359 0.475591,-0.968759 0.890625,-1.457032 0.415033,-0.488273 0.97559,-0.868162 1.683593,-1.136718 0.708016,-0.27669 1.612314,-0.414063 2.710938,-0.414063 0.349928,0 0.695314,0.02344 1.037109,0.07227 0.349928,0.04069 0.679046,0.09863 0.988281,0.171875 l 0,-3.0156251 c -0.154623,-0.032547 -0.328133,-0.061525 -0.523437,-0.085937 -0.195317,-0.024413 -0.399745,-0.040698 -0.611328,-0.048828 -0.20345,-0.016279 -0.405924,-0.027026 -0.609375,-0.035156 -0.20345,-0.00813 -0.391609,-0.013672 -0.5625,-0.013672 z M 32.25,18.052734 c 0.740549,0 1.290377,0.25326 1.648438,0.757813 0.366207,0.496419 0.548828,1.180021 0.548828,2.050781 0,0.537099 -0.05794,1.000004 -0.171875,1.390625 -0.105785,0.390621 -0.259441,0.716153 -0.462891,0.976563 -0.195304,0.252263 -0.430342,0.444007 -0.707031,0.574218 -0.268556,0.122067 -0.570649,0.183594 -0.904297,0.183594 -0.406901,0 -0.764984,-0.10319 -1.074219,-0.30664 -0.301102,-0.203452 -0.557948,-0.467454 -0.769531,-0.792969 -0.203437,-0.333649 -0.357093,-0.704427 -0.462891,-1.111328 -0.09765,-0.415033 -0.146484,-0.829107 -0.146484,-1.244141 0,-0.301102 0.05599,-0.597656 0.169922,-0.890625 0.122065,-0.292969 0.293941,-0.558925 0.513672,-0.794922 0.21973,-0.236009 0.483733,-0.425788 0.792968,-0.572265 0.309249,-0.146478 0.65105,-0.220704 1.025391,-0.220704 z M 45,25 l 0,9.003906 0.855469,0.806641 c 0.154625,-0.04883 0.339198,-0.09408 0.550781,-0.134766 0.211583,-0.04883 0.43034,-0.09408 0.658203,-0.134765 0.235997,-0.04069 0.471035,-0.07325 0.707031,-0.09766 0.244143,-0.02441 0.472011,-0.03516 0.683594,-0.03516 1.163663,0 2.022793,0.231454 2.576172,0.695313 0.561511,0.455753 0.841797,1.12306 0.841797,2.001953 0,0.984652 -0.283858,1.704429 -0.853516,2.160156 -0.569631,0.44758 -1.399757,0.671875 -2.490234,0.671875 -0.366195,0 -0.753255,-0.02897 -1.160156,-0.08594 -0.406887,-0.0651 -0.813803,-0.14649 -1.220703,-0.24414 C 45.749684,39.501637 45.362622,39.380533 44.988281,39.242188 44.61394,39.095711 44.284823,38.940102 44,38.777344 l 0,3.259765 c 0.293329,0.162665 0.619234,0.304451 0.976562,0.425782 0.366661,0.122665 0.749777,0.219638 1.148438,0.292968 0.406661,0.08133 0.829538,0.143594 1.269531,0.183594 0.43866,0.04133 0.882085,0.06055 1.330078,0.06055 1.12265,0 2.115863,-0.142405 2.978516,-0.427734 0.870721,-0.284822 1.597669,-0.691739 2.183594,-1.220704 0.585925,-0.537098 1.030929,-1.188163 1.332031,-1.953124 0.301102,-0.773163 0.451172,-1.642917 0.451172,-2.611329 0,-0.878933 -0.139327,-1.656588 -0.416016,-2.332031 -0.276689,-0.683576 -0.658211,-1.253257 -1.146484,-1.708984 -0.488286,-0.455727 -1.06154,-0.801113 -1.720703,-1.03711 C 51.727569,31.472988 51.014962,31.353516 50.25,31.353516 l 0,0.002 c -0.545245,0 -0.991868,0.02898 -1.341797,0.08594 -0.341795,0.05696 -0.643888,0.112952 -0.904297,0.169922 L 48.296875,28 54,28 l 0,-3 -9,0 z m -31.005859,0.09375 c -0.716136,0 -1.363616,0.07422 -1.941407,0.220703 C 11.474943,25.452797 10.946936,25.639004 10.466797,25.875 9.9866574,26.111011 9.5471915,26.384123 9.1484375,26.693359 8.7496835,26.994461 8.3662079,27.111664 8,27.445312 l 2.050781,2.431641 c 0.651031,-0.585925 1.273117,-1.036134 1.867188,-1.353515 0.594058,-0.317382 1.212572,-0.476563 1.855469,-0.476563 0.610351,0 1.095064,0.166351 1.453124,0.5 0.366207,0.333648 0.548829,0.802092 0.548829,1.404297 0,0.545245 -0.08497,1.053397 -0.25586,1.52539 -0.170904,0.471994 -0.411468,0.936852 -0.720703,1.392579 -0.309235,0.455713 -0.678062,0.922204 -1.109375,1.402343 -0.431301,0.480126 -0.912441,1.006514 -1.441406,1.576172 l -4.1992189,4.728516 0,2.423828 11.9746099,0 0,-0.002 0,-2.974609 -7.273438,0 0,-0.169922 2.146484,-2.361328 c 0.63475,-0.626617 1.229825,-1.241546 1.783204,-1.84375 0.561525,-0.610351 1.053395,-1.219742 1.476562,-1.830079 0.423167,-0.618484 0.75781,-1.246108 1.001953,-1.880859 0.244129,-0.642924 0.365235,-1.313816 0.365235,-2.013672 0,-0.773095 -0.130217,-1.469406 -0.390626,-2.08789 -0.252276,-0.618471 -0.617516,-0.943688 -1.097656,-1.375 C 17.55503,26.02149 16.972652,25.685215 16.289062,25.449219 15.613566,25.213223 14.848622,25.09375 13.994141,25.09375 Z M 26,41.177734 26,44 l 8.203125,0 -6.347656,15 0.002,0 3.941406,0 L 38,43.546875 l 0,-2.369141 -12,0 z"/>
 <path style="fill:#ffffff" d="M 34.544922 8.0019531 C 33.364913 8.0019531 32.33234 8.144865 31.445312 8.4296875 C 30.566365 8.7063766 29.808592 9.0934377 29.173828 9.5898438 C 28.547211 10.078116 28.026361 10.654956 27.611328 11.322266 C 27.204441 11.989536 26.878909 12.414072 26.634766 13.195312 C 26.39877 13.968422 26.232416 14.778666 26.134766 15.625 C 26.045248 16.471294 26 17.321301 26 18.175781 L 26.001953 18.175781 C 26.001953 19.518961 26.161187 20.68203 26.478516 21.666016 C 26.803845 22.643334 27.245316 23.453045 27.806641 24.095703 C 28.377299 24.738359 29.044605 25.217827 29.808594 25.535156 C 30.573916 25.844484 31.396738 26 32.275391 26 C 33.171378 26 33.97675 25.861933 34.691406 25.585938 C 35.407542 25.301116 36.018886 24.894199 36.523438 24.365234 C 37.027977 23.828135 37.413085 23.177071 37.681641 22.412109 C 37.95833 21.647213 38.097656 20.780912 38.097656 19.8125 C 38.097656 18.90918 37.983722 18.108059 37.755859 17.408203 C 37.528009 16.708347 37.198892 16.017249 36.767578 15.537109 C 36.344411 15.056969 35.823562 14.691728 35.205078 14.439453 C 34.586594 14.187176 33.890282 14.060547 33.117188 14.060547 C 32.637048 14.060547 32.201168 14.112952 31.810547 14.21875 C 31.428059 14.324548 31.082673 14.471033 30.773438 14.658203 C 30.464188 14.83724 30.191074 15.157559 29.955078 15.417969 C 29.727215 15.670245 29.531899 15.943359 29.369141 16.236328 L 29.222656 16.236328 C 29.263349 15.406207 29.370125 14.648433 29.541016 13.964844 C 29.720053 13.281254 30.016607 12.996085 30.431641 12.507812 C 30.846674 12.019539 31.407231 11.63965 32.115234 11.371094 C 32.82325 11.094404 33.727548 10.957031 34.826172 10.957031 C 35.1761 10.957031 35.521486 10.980467 35.863281 11.029297 C 36.213209 11.069989 36.542327 11.127932 36.851562 11.201172 L 36.851562 8.1855469 C 36.696939 8.1529999 36.523429 8.1240224 36.328125 8.0996094 C 36.132808 8.0751964 35.92838 8.0589112 35.716797 8.0507812 C 35.513347 8.0345023 35.310873 8.023755 35.107422 8.015625 C 34.903972 8.007495 34.715813 8.0019531 34.544922 8.0019531 z M 32.25 17.052734 C 32.990549 17.052734 33.540377 17.305994 33.898438 17.810547 C 34.264645 18.306966 34.447266 18.990568 34.447266 19.861328 C 34.447266 20.398427 34.389322 20.861332 34.275391 21.251953 C 34.169606 21.642574 34.01595 21.968106 33.8125 22.228516 C 33.617196 22.480779 33.382158 22.672523 33.105469 22.802734 C 32.836913 22.924801 32.53482 22.986328 32.201172 22.986328 C 31.794271 22.986328 31.436188 22.883138 31.126953 22.679688 C 30.825851 22.476236 30.569005 22.212234 30.357422 21.886719 C 30.153985 21.55307 30.000329 21.182292 29.894531 20.775391 C 29.796883 20.360358 29.748047 19.946284 29.748047 19.53125 C 29.748047 19.230148 29.804038 18.933594 29.917969 18.640625 C 30.040034 18.347656 30.21191 18.0817 30.431641 17.845703 C 30.651371 17.609694 30.915374 17.419915 31.224609 17.273438 C 31.533858 17.12696 31.875659 17.052734 32.25 17.052734 z M 45 24 L 45 33.003906 L 45.855469 33.810547 C 46.010094 33.761719 46.194667 33.716471 46.40625 33.675781 C 46.617833 33.626953 46.83659 33.581706 47.064453 33.541016 C 47.30045 33.500326 47.535488 33.467769 47.771484 33.443359 C 48.015627 33.418949 48.243495 33.408203 48.455078 33.408203 C 49.618741 33.408203 50.477871 33.639657 51.03125 34.103516 C 51.592761 34.559269 51.873047 35.226576 51.873047 36.105469 C 51.873047 37.090121 51.589189 37.809898 51.019531 38.265625 C 50.4499 38.713205 49.619774 38.9375 48.529297 38.9375 C 48.163102 38.9375 47.776042 38.908532 47.369141 38.851562 C 46.962254 38.786458 46.555338 38.705072 46.148438 38.607422 C 45.749684 38.501637 45.362622 38.380533 44.988281 38.242188 C 44.61394 38.095711 44.284823 37.940102 44 37.777344 L 44 41.037109 C 44.293329 41.199774 44.619234 41.34156 44.976562 41.462891 C 45.343223 41.585556 45.726339 41.682529 46.125 41.755859 C 46.531661 41.83719 46.954538 41.899453 47.394531 41.939453 C 47.833191 41.980783 48.276616 42 48.724609 42 C 49.847259 42 50.840472 41.857595 51.703125 41.572266 C 52.573846 41.287444 53.300794 40.880527 53.886719 40.351562 C 54.472644 39.814464 54.917648 39.163399 55.21875 38.398438 C 55.519852 37.625275 55.669922 36.755521 55.669922 35.787109 C 55.669922 34.908176 55.530595 34.130521 55.253906 33.455078 C 54.977217 32.771502 54.595695 32.201821 54.107422 31.746094 C 53.619136 31.290367 53.045882 30.944981 52.386719 30.708984 C 51.727569 30.472988 51.014962 30.353516 50.25 30.353516 L 50.25 30.355469 C 49.704755 30.355469 49.258132 30.384446 48.908203 30.441406 C 48.566408 30.498365 48.264315 30.554358 48.003906 30.611328 L 48.296875 27 L 54 27 L 54 24 L 45 24 z M 13.994141 24.09375 C 13.278005 24.09375 12.630525 24.167975 12.052734 24.314453 C 11.474943 24.452797 10.946936 24.639004 10.466797 24.875 C 9.9866574 25.111011 9.5471915 25.384123 9.1484375 25.693359 C 8.7496835 25.994461 8.3662079 26.111664 8 26.445312 L 10.050781 28.876953 C 10.701812 28.291028 11.323898 27.840819 11.917969 27.523438 C 12.512027 27.206056 13.130541 27.046875 13.773438 27.046875 C 14.383789 27.046875 14.868502 27.213226 15.226562 27.546875 C 15.592769 27.880523 15.775391 28.348967 15.775391 28.951172 C 15.775391 29.496417 15.690422 30.004569 15.519531 30.476562 C 15.348627 30.948556 15.108063 31.413414 14.798828 31.869141 C 14.489593 32.324854 14.120766 32.791345 13.689453 33.271484 C 13.258152 33.75161 12.777012 34.277998 12.248047 34.847656 L 8.0488281 39.576172 L 8.0488281 42 L 20.023438 42 L 20.023438 41.998047 L 20.023438 39.023438 L 12.75 39.023438 L 12.75 38.853516 L 14.896484 36.492188 C 15.531234 35.865571 16.126309 35.250642 16.679688 34.648438 C 17.241213 34.038087 17.733083 33.428696 18.15625 32.818359 C 18.579417 32.199875 18.91406 31.572251 19.158203 30.9375 C 19.402332 30.294576 19.523438 29.623684 19.523438 28.923828 C 19.523438 28.150733 19.393221 27.454422 19.132812 26.835938 C 18.880536 26.217467 18.515296 25.89225 18.035156 25.460938 C 17.55503 25.02149 16.972652 24.685215 16.289062 24.449219 C 15.613566 24.213223 14.848622 24.09375 13.994141 24.09375 z M 26 40.177734 L 26 43 L 34.203125 43 L 27.855469 58 L 27.857422 58 L 31.798828 58 L 38 42.546875 L 38 40.177734 L 26 40.177734 z"/>
 <path style="opacity:0.1;fill:#ffffff" d="M 7 4 C 5.3380249 4 4 5.3380249 4 7 L 4 8 C 4 6.3380249 5.3380249 5 7 5 L 57 5 C 58.661975 5 60 6.3380249 60 8 L 60 7 C 60 5.3380249 58.661975 4 57 4 L 7 4 z"/>
</svg>
